X: 129
T: Aylardır Gül Yüzünü...
C: Erol Sayan
O: Turkey
F: http://compmusic.upf.edu/node/140
N: suzinak-zirgule--sarki--duyek--aylardir_gul--erol_sayan
N: makam= suzinak-zirgule
N: form= sarki
N: usul= duyek = 8/4
M: 8/4
L: 1/16
K: C _1/4B _7/8e _7/8A ^f
Q: 1/4=240
%%MIDI tuningsystem comma53
z2 G2 B2 c2 d2 B2 G2 B2  | .d2 d6 z2 .G2 .B2 .d2  | \
w:   |   | 
z2 e2 c2 d2 e2 B2 c2 d2  | 
w:   | 
.e2 e6 .B2 .G2 cd e2  | z2 f2 e2 d2 e2 B2 c2 e2  | \
w:   |   | 
.g2 g6 cd ef .g2 z2  | 
w:   | 
f2 g4 d2 .e2 B2 c2 z2  | .A2 G6 cd ef g4  | \
w:   |   | 
f2 g4 d2 .e2 B2 c2 z2  | 
w:   | 
.A2 G4 Bc .d2 .B2 G4  | z2 G2 B2 c2 d4 c4  | \
w:   |  Ay lar dır gül yü  | 
B2 d6 G2 B2 d4  | z2 f2 d2 e2 d4 c2 d2  | 
w:  zü nü SAZ  |  Gö re mez ol dum  | 
c2 {d}B4 .B.c .d.c .B.A .G4  | z2 G2 B2 c2 d4 c4  | \
w:  se *  nin SAZ  |  Ay lar dır gül yü  | 
B2 d6 G2 B2 d4  | z2 f2 d2 e2 d4 c2 d2  | 
w:  zü nü SAZ  |  Gö re mez ol dum  | 
cd B6 de cd B4  | z2 g4 f2 e4 f2 g2  | \
w:  se *  nin SAZ  |  Aş kı ma i nan  | 
z2 e4 d2 c4 d2 e2  | z2 G2 A2 B2 c2 B2 A2 B2  | 
w:  söy le mem ya lan  |  Bek li yo rum *  ben  | 
G2 d6 de cd B4  | z2 g4 f2 e4 f2 g2  | \
w:  her an SAZ  |  Aş kı ma i nan  | 
z2 e4 d2 c4 d2 e2  | z2 G2 A2 B2 c2 B2 A2 B2  | 
w:  söy le mem ya lan  |  Bek li yo rum *  ben  | 
A2 G4 Bc d2 B2 G4  | z2 G2 B2 c2 d2 B2 G2 B2  | \
w:  her an  |   | 
.d2 d6 z2 .G2 .B2 .d2  | 
w:   | 
z2 e2 c2 d2 e2 B2 c2 d2  | .e2 e6 .B2 .G2 cd e2  | \
w:   |   | 
z2 f2 e2 d2 e2 B2 c2 e2  | 
w:   | 
.g2 g6 cd ef .g2 z2  | f2 g4 d2 .e2 B2 c2 z2  | \
w:   |   | 
.A2 G6 cd ef g4  | 
w:   | 
f2 g4 d2 .e2 B2 c2 z2  | .A2 G4 Bc .d2 .B2 G4  | \
w:   |   | 
z2 G2 B2 c2 d4 c4  | B2 d6 G2 B2 d4  | 
w:  Ay lar dır gül yü  |  zü nü SAZ  | 
z2 f2 d2 e2 d4 c2 d2  | c2 {d}B4 .B.c .d.c .B.A .G4  | \
w:  Gö re mez ol dum  |  se *  nin SAZ  | 
z2 G2 B2 c2 d4 c4  | 
w:  Ay lar dır gül yü  | 
B2 d6 G2 B2 d4  | z2 f2 d2 e2 d4 c2 d2  | \
w:  zü nü SAZ  |  Gö re mez ol dum  | 
cd B6 de cd B4  | z2 g4 f2 e4 f2 g2  | 
w:  se *  nin SAZ  |  Aş kı ma i nan  | 
z2 e4 d2 c4 d2 e2  | z2 G2 A2 B2 c2 B2 A2 B2  | \
w:  söy le mem ya lan  |  Bek li yo rum *  ben  | 
G2 d6 de cd B4  | 
w:  her an SAZ  | 
z2 g4 f2 e4 f2 g2  | z2 e4 d2 c4 d2 e2  | \
w:  Aş kı ma i nan  |  söy le mem ya lan  | 
z2 G2 A2 B2 c2 B2 A2 B2  | A2 G4 Bc d2 B2 G4  | 
w:  Bek li yo rum *  ben  |  her an  | 
|


